packages/core/src/svgs/tokens/branded/APW.svg

<svg width="24" height="24" viewBox="0 0 24 24" fill="none" xmlns="http://www.w3.org/2000/svg">
<path fill-rule="evenodd" clip-rule="evenodd" d="M11.7059 21.4117V20.0823L9.04704 17.8824H4.69999L6.19411 15.5294L4.94116 14.4941V9.50583L11.7059 4.21175V2.58823C9.26878 2.67443 6.96041 3.70315 5.26686 5.45767C3.57328 7.2122 2.62681 9.55552 2.62681 11.9941C2.62681 14.4326 3.57328 16.7759 5.26686 18.5305C6.96041 20.285 9.26878 21.3137 11.7059 21.3999V21.4117ZM21.4117 12C21.4129 14.446 20.4618 16.7964 18.7599 18.5533C17.058 20.3101 14.7389 21.3353 12.2941 21.4117V20.0588L14.4706 17.8824H19.2823L17.9117 15.5588L19.0588 14.8059V9.50583L12.2941 4.21175V2.58823C14.7389 2.66467 17.058 3.68991 18.7599 5.44673C20.4618 7.20356 21.4129 9.55401 21.4117 12ZM22 12C22 14.6522 20.9464 17.1957 19.0711 19.071C17.1957 20.9464 14.6522 22 12 22C9.34784 22 6.80429 20.9464 4.92892 19.071C3.05357 17.1957 2 14.6522 2 12C2 9.34785 3.05357 6.80429 4.92892 4.92892C6.80429 3.05357 9.34784 2 12 2C14.6522 2 17.1957 3.05357 19.0711 4.92892C20.9464 6.80429 22 9.34785 22 12ZM5.77058 17.2941L6.65294 15.9059L8.33528 17.2941H5.76469H5.77058ZM13.6412 17.8824L12.2941 19.2353V17.8824H13.6471H13.6412ZM18.247 17.2941H12.2941V14.8L8.63528 11.9352L11.9882 6.68234L18.247 17.2941ZM12.0118 5.55294L8.17058 11.5706L5.70588 9.64707L12 4.72352L18.2823 9.64707L15.6176 11.6765L12.0118 5.55881V5.55294ZM5.52941 14.2117V10.2529L11.7059 15.0824V19.3176L5.52941 14.2117ZM15.9177 12.1764L18.4706 10.2353V14.4882L17.6118 15.053L15.9177 12.1764Z" fill="#FEC093"/>
</svg>

<svg xmlns="http://www.w3.org/2000/svg" width="24" height="24" fill="none" viewBox="0 0 24 24">
    <path fill="#FEC093" fill-rule="evenodd" d="M11.706 21.412v-1.33l-2.659-2.2H4.7l1.494-2.353-1.253-1.035V9.506l6.765-5.294V2.588a9.412 9.412 0 0 0 0 18.812zM21.412 12a9.41 9.41 0 0 1-9.118 9.412v-1.353l2.177-2.177h4.811l-1.37-2.323 1.147-.753v-5.3l-6.765-5.294V2.588A9.41 9.41 0 0 1 21.412 12M22 12a10 10 0 1 1-20 0 10 10 0 0 1 20 0M5.77 17.294l.883-1.388 1.682 1.388h-2.57zm7.871.588-1.347 1.353v-1.353h1.353zm4.606-.588h-5.953V14.8l-3.659-2.865 3.353-5.253zM12.012 5.553 8.17 11.57 5.706 9.647 12 4.724l6.282 4.923-2.664 2.03-3.606-6.118zm-6.483 8.659v-3.96l6.177 4.83v4.236zm10.389-2.036 2.553-1.94v4.252l-.86.565z" clip-rule="evenodd"/>
</svg>
